icons/cardiogram.svg

<svg width="48" height="48" viewBox="0 0 48 48" fill="none" xmlns="http://www.w3.org/2000/svg">
<path fill-rule="evenodd" clip-rule="evenodd" d="M17 7C17 5.34315 18.3431 4 20 4H28C29.6569 4 31 5.34315 31 7H35C36.6569 7 38 8.34315 38 10V41C38 42.6569 36.6569 44 35 44H13C11.3431 44 10 42.6569 10 41V10C10 8.34315 11.3431 7 13 7H17ZM17 9H13C12.4477 9 12 9.44772 12 10V20.9886H17.6326L21.0207 14.9654L23.1377 22.375L25.7284 19.0442H31.2175C31.7698 19.0442 32.2175 19.4919 32.2175 20.0442C32.2175 20.5965 31.7698 21.0442 31.2175 21.0442H26.7066L22.2972 26.7133L20.4143 20.123L18.8023 22.9886H12V41C12 41.5523 12.4477 42 13 42H35C35.5523 42 36 41.5523 36 41V10C36 9.44771 35.5523 9 35 9H31C31 10.6569 29.6569 12 28 12H20C18.3431 12 17 10.6569 17 9ZM20 6C19.4477 6 19 6.44772 19 7V9C19 9.55228 19.4477 10 20 10H28C28.5523 10 29 9.55228 29 9V7C29 6.44772 28.5523 6 28 6H20ZM16 31C16 30.4477 16.4477 30 17 30H31C31.5523 30 32 30.4477 32 31C32 31.5523 31.5523 32 31 32H17C16.4477 32 16 31.5523 16 31ZM16 37C16 36.4477 16.4477 36 17 36H23C23.5523 36 24 36.4477 24 37C24 37.5523 23.5523 38 23 38H17C16.4477 38 16 37.5523 16 37Z" fill="black"/>
</svg>

<svg
  xmlns="http://www.w3.org/2000/svg"
  width="24"
  height="24"
  viewBox="0 0 24 24"
  fill="none"
  stroke="currentColor"
  stroke-width="2"
  stroke-linecap="round"
  stroke-linejoin="round"
>
  <path
    fill-rule="evenodd"
    d="M17 7a3 3 0 0 1 3-3h8a3 3 0 0 1 3 3h4a3 3 0 0 1 3 3v31a3 3 0 0 1-3 3H13a3 3 0 0 1-3-3V10a3 3 0 0 1 3-3zm0 2h-4a1 1 0 0 0-1 1v10.989h5.633l3.388-6.024 2.117 7.41 2.59-3.33h5.49a1 1 0 1 1 0 2h-4.511l-4.41 5.668-1.883-6.59-1.612 2.866H12V41a1 1 0 0 0 1 1h22a1 1 0 0 0 1-1V10a1 1 0 0 0-1-1h-4a3 3 0 0 1-3 3h-8a3 3 0 0 1-3-3m3-3a1 1 0 0 0-1 1v2a1 1 0 0 0 1 1h8a1 1 0 0 0 1-1V7a1 1 0 0 0-1-1zm-4 25a1 1 0 0 1 1-1h14a1 1 0 1 1 0 2H17a1 1 0 0 1-1-1m0 6a1 1 0 0 1 1-1h6a1 1 0 1 1 0 2h-6a1 1 0 0 1-1-1"
    clip-rule="evenodd"
  />
</svg>
